X: 21
T:De'il Among the Tailors
M:4/4
L:1/8
S:AA BBB
R:Tune 1
K:A
|:g2|"A"a2 eg "E"a2 eg|"A"a2 eg "C#"fedc|"Bm"dfBf "C#"dfBf|"E"dfba gefg|
!
"A"a2 eg "E"a2 eg|"A"a2 eg "C#"fedc|"Bm"defd "A"ecBA|"E"E2 G2 "A"A2:||!
|:ed|"A"ceAe "E"ceAe|"A"ceag "C#"fedc|"Bm"dfBf "C#"dfBf|"Bm"dfba "E"gfed
|!
"A"ceAe "G#"ceAe|"F#m"ceag "C#"fedc|"Bm"defd "A"ecBA|"E"E2 G2 "A"A2:||

